X:1
T:Title
%%score { ( 1 3 ) | ( 2 4 ) }
L:1/8
M:4/4
K:D
V:1 treble nm="Grand Piano"
V:3 treble 
V:2 treble 
V:4 treble 
V:1
 z4 z2[Q:1/4=100] [FA]2 | [A,DFA]2 [F,A,D]2 [A,DF]2 G2 | [A,DFA]2 [F,A,D]2 [A,DF]2 G2 | %3
 F2- [F-d]2 [F-c]2 [FB]2 | F6 z2 | [A,CG]2 [A,B,G]2 [A,EG]2 [EA]2 | %6
 [A,DF]2 [^A,EF]2 [B,DF]2 [A,^DA]2 | z4 [Ec]2 [DEB]2 | [CEA]6 z2 | [A,DFA]2 [F,A,D]2 [A,DF]2 G2 | %10
 [A,DFA]2 [F,A,D]2 [A,DF]2 G2 | [A,FA]2 [DAd]2 [D^Ad]2 [CAc]2 | B2- [B,^DAB-]2 [B,EGB]2 z2 | %13
 [EGc]2 [EGc]2 A,G,AG | d>d [Gd]2 A2 [=CF]2 | [CGA]2 [CGB]2 [CGB]2 [CGB]2 | %16
[M:5/8] [CGA]-[CGA]- [CGA]3 |[M:9/16] A3/2B3/2c3/2 |[M:4/4] d2 [Fd]2 [Fc]2 [FB]2 | z2 D2 DABc | %20
 d2 [Fd]2 [Fc]2 [FB]2 | G6 z2 | G2 A2 B2 c2 | d2 c2 d2 [B^d]2 | e2- [Be]2 z2 ^G2 | e6 z2 | %26
 d2 [Fd]2 [Fc]2 [FB]2 | z2 D2 AABc | d2 [Gc]2 [Ad]2 [A^d]2 | e6 z2 | d2 d2 c2 B2 | d2 F2 A2 d2 | %32
 z4 e4 |[M:3/4] [Fd]6 |] %34
V:2
 z4 z2 D>B | D,2 D,2 D,2 E2 | D,2 D,2 D,2 E2 | D,2 [A,,A,]2 [D,A,]2 [A,,A,]2 | D6[K:treble] z2 | %5
 E,2 D,2 C,2 A,2 | D,2 C,2 B,,2 =C,2 | C,2 D,2 E,E,,[F,,F,]^G,, | A,,G,E,C, A,,2[K:treble] C>B | %9
 D,2 D,2 D,2 E2 | D,2 D,2 D,2 E2 | D,2 [A,,A,]2 [F,,F,]2 [F,,F,]2 | %12
 [G,,G,]2 [F,,F,]2 [E,,E,]D,C,B,, | z z/[K:treble] c/[K:bass] A,,2 A,,G,,[F,,F,][E,,E,] | %14
 [D,,D,]2 [E,,E,]2 [F,,F,]2 [^D,,^D,]2 | [E,,E,]2 A,,2 [E,,E,]2 A,,2 |[M:5/8] E,2 A,,2 A,, | %17
[M:9/16] A,3/2B,3/2C3/2 |[M:4/4] [D,A,D]2 [A,,A,]2 [D,A,]2 [A,,A,]2 | %19
 [D,A,D]2 [A,,A,]2 [D,A,]A,B,C | [D,A,D]2 [A,,A,]2 [D,A,]2 [A,,A,]2 | %21
 [E,A,C]2 [A,,A,]2 [E,A,]2 E,F, | G,2 A,2 B,2[K:treble] C2 | D2 C2 [B,DB]2 [A,F]2 | %24
 [G,E]2 [G,E]2 [DE^G]2 [DE]2 | [CEA]2[K:bass] [B,D]2 [A,C]A,B,C | %26
 [D,A,D]2 [A,,A,]2 [D,A,]2 [A,,A,]2 | [D,A,D]2 [A,,A,]2 [D,A,D]A,B,[K:treble]C | %28
 [DF]2[K:bass] [E,A,]2 [F,D]2 [F,B,]2 | [G,B,G]2 [G,B,]2 [G,B,][G,DG][G,CG][G,DG] | %30
 [^G,B,=F]2 [G,B,F]2 [G,B,F]2 [G,DF]2 | [A,DF]2[K:bass] F,2 A,2[K:treble] D2 | %32
 [A,DA]4[K:bass] C2 z2 |[M:3/4] [D,A,]6 |] %34
V:3
 x8 | x8 | x8 | [A,A]2 z2 z4 | z2 A,2 A,2 B2 | x8 | x8 | [A,E]2 [A,DFA]2 z E, z ^G, | %8
 .A,2 z2 z2 [EGA]2 | x8 | x8 | x8 | [B,DG]2 z2 z4 | z4 [EG]2 z2 | F2 z2 z4 | x8 | %16
[M:5/8] z z z2 A, |[M:9/16] x9/2 |[M:4/4] x8 | F6 z2 | x8 | z2 C2 C2 EF | x8 | x8 | B2 z2 B4 | %25
 z2 ^G2 =GABc | x8 | F4 z4 | x8 | z2 G2 GB^AB | x8 | x8 | f4 z2 A,2 |[M:3/4] x6 |] %34
V:4
 x8 | x8 | x8 | x8 | [D,A,]2 A,,2 D,2[K:treble] D>A | x8 | x8 | x8 | x6[K:treble] x2 | x8 | x8 | %11
 x8 | x8 | A,,2[K:treble][K:bass] z2 z4 | x8 | x8 |[M:5/8] x5 |[M:9/16] x9/2 |[M:4/4] x8 | x8 | %20
 x8 | x8 | x6[K:treble] x2 | x8 | x8 | x2[K:bass] x6 | x8 | x7[K:treble] x | x2[K:bass] x6 | x8 | %30
 x8 | x2[K:bass] x4[K:treble] x2 | z4[K:bass] [A,,G]4 |[M:3/4] x6 |] %34

